X:079 
T:Punch Bowl (reel), The  
F:file ID liddy.1/079pb
Z:bill@capeirish.com
B:Liddy1.33
Q:180
L:1/8
M:4/4
R:reel
K:Em
B/A/|GEDE GB B2|AEGE DEGA|B2 eB EBdB|ABGB A2 BA |
GEDE GB B2|AEGE DEGA|B2 eB ABGA|BGAF GEE :|
A|Bdef g2 af|gfed BAGA|B2 dB eBfB|eBdB ABGB |
[1 Bdef g2 af|gfed BAGA|B2 dB ABGA|BEED E2G :|
[2 Bdef g2 ag|e2 dB A2 GA|B2 dB ABGA|BE (3FED E4 |]

